public/logos/IN.svg

<?xml version="1.0" encoding="UTF-8"?>
<svg xmlns="http://www.w3.org/2000/svg" xmlns:xlink="http://www.w3.org/1999/xlink" width="176pt" height="22.12pt" viewBox="0 0 176 22.12" version="1.1">
<defs>
<clipPath id="clip1">
  <path d="M 5 2 L 21 2 L 21 22.121094 L 5 22.121094 Z M 5 2 "/>
</clipPath>
<clipPath id="clip2">
  <path d="M 155 0 L 176 0 L 176 22.121094 L 155 22.121094 Z M 155 0 "/>
</clipPath>
<clipPath id="clip3">
  <path d="M 0 0 L 24 0 L 24 22.121094 L 0 22.121094 Z M 0 0 "/>
</clipPath>
<clipPath id="clip4">
  <path d="M 78 0 L 106 0 L 106 22.121094 L 78 22.121094 Z M 78 0 "/>
</clipPath>
<clipPath id="clip5">
  <path d="M 24 0 L 49 0 L 49 22.121094 L 24 22.121094 Z M 24 0 "/>
</clipPath>
<clipPath id="clip6">
  <path d="M 114 0 L 143 0 L 143 22.121094 L 114 22.121094 Z M 114 0 "/>
</clipPath>
<clipPath id="clip7">
  <path d="M 48 0 L 77 0 L 77 22.121094 L 48 22.121094 Z M 48 0 "/>
</clipPath>
<clipPath id="clip8">
  <path d="M 144 0 L 153 0 L 153 22.121094 L 144 22.121094 Z M 144 0 "/>
</clipPath>
<clipPath id="clip9">
  <path d="M 10 8 L 22 8 L 22 22.121094 L 10 22.121094 Z M 10 8 "/>
</clipPath>
</defs>
<g id="surface1">
<g clip-path="url(#clip1)" clip-rule="nonzero">
<path style=" stroke:none;fill-rule:nonzero;fill:rgb(100%,100%,100%);fill-opacity:1;" d="M 5.296875 17.539062 L 10.582031 22.035156 L 20.628906 7.492188 L 17.984375 2.910156 L 5.296875 17.539062 "/>
</g>
<g clip-path="url(#clip2)" clip-rule="nonzero">
<path style=" stroke:none;fill-rule:nonzero;fill:rgb(16.975403%,15.716553%,26.551819%);fill-opacity:1;" d="M 176 6.699219 C 175.96875 6.839844 175.925781 6.980469 175.898438 7.125 C 175.558594 9.125 174.492188 10.609375 172.699219 11.558594 C 172.269531 11.785156 171.820312 11.972656 171.382812 12.175781 C 171.238281 12.246094 171.097656 12.316406 170.917969 12.402344 C 170.972656 12.59375 171.003906 12.761719 171.070312 12.917969 C 172.003906 15.039062 172.9375 17.164062 173.878906 19.285156 C 174.203125 20.023438 174.546875 20.753906 174.875 21.492188 C 174.949219 21.660156 174.992188 21.839844 175.070312 22.074219 C 172.605469 22.074219 170.210938 22.074219 167.8125 22.074219 C 167.75 21.964844 167.679688 21.882812 167.65625 21.789062 C 166.550781 17.792969 165.019531 13.941406 163.65625 10.035156 C 163.640625 9.988281 163.664062 9.925781 163.671875 9.824219 C 164.078125 9.855469 164.46875 9.890625 164.859375 9.910156 C 165.855469 9.960938 166.824219 9.847656 167.734375 9.414062 C 168.8125 8.898438 169.425781 7.78125 169.292969 6.59375 C 169.214844 5.914062 168.847656 5.425781 168.246094 5.109375 C 167.691406 4.816406 167.078125 4.703125 166.460938 4.6875 C 165.375 4.660156 164.289062 4.679688 163.203125 4.6875 C 163.074219 4.6875 162.949219 4.726562 162.792969 4.75 C 162.761719 4.894531 162.714844 5.019531 162.707031 5.144531 C 162.640625 6.492188 162.570312 7.839844 162.515625 9.1875 C 162.429688 11.300781 162.351562 13.410156 162.269531 15.523438 C 162.265625 15.640625 162.261719 15.757812 162.261719 15.875 C 162.226562 17.765625 162.195312 19.660156 162.160156 21.554688 C 162.15625 21.710938 162.128906 21.867188 162.113281 22 C 161.699219 22.15625 155.738281 22.15625 155.355469 22.003906 C 155.347656 21.917969 155.320312 21.816406 155.332031 21.722656 C 156.140625 14.570312 156.257812 7.386719 156.367188 0.152344 C 156.628906 0.128906 156.828125 0.0976562 157.027344 0.0976562 C 158.640625 0.09375 160.253906 0.0976562 161.867188 0.09375 C 162.277344 0.09375 162.6875 0.09375 163.101562 0.078125 C 163.289062 0.0703125 163.476562 0.0273438 163.660156 0 C 165.21875 0 166.777344 0 168.332031 0 C 168.5625 0.03125 168.792969 0.0742188 169.023438 0.0859375 C 170.15625 0.148438 171.269531 0.277344 172.34375 0.675781 C 174.328125 1.417969 175.582031 2.769531 175.917969 4.90625 C 175.933594 5.007812 175.972656 5.101562 176 5.199219 C 176 5.699219 176 6.199219 176 6.699219 "/>
</g>
<g clip-path="url(#clip3)" clip-rule="nonzero">
<path style=" stroke:none;fill-rule:nonzero;fill:rgb(93.02063%,14.094543%,20.675659%);fill-opacity:1;" d="M 12.246094 11.691406 C 12.46875 13.640625 12.695312 15.578125 12.917969 17.515625 C 12.949219 17.519531 12.980469 17.523438 13.011719 17.527344 C 13.261719 17.183594 13.507812 16.84375 13.730469 16.535156 C 13.652344 15.957031 13.578125 15.433594 13.5 14.898438 C 13.785156 14.511719 14.066406 14.125 14.371094 13.710938 C 14.65625 14.019531 14.886719 14.277344 15.15625 14.578125 C 15.425781 14.210938 15.671875 13.875 15.929688 13.527344 C 14.988281 12.507812 14.078125 11.519531 13.132812 10.496094 C 12.828125 10.90625 12.550781 11.28125 12.246094 11.691406 Z M 17.105469 7.492188 C 17.128906 7.496094 17.15625 7.5 17.183594 7.503906 C 17.558594 8.382812 17.933594 9.257812 18.34375 10.207031 C 18.59375 9.863281 18.78125 9.605469 18.96875 9.347656 C 18.347656 7.917969 17.738281 6.515625 17.097656 5.039062 C 16.734375 5.535156 16.429688 5.960938 16.140625 6.355469 C 16.351562 7.382812 16.550781 8.355469 16.75 9.332031 C 16.726562 9.339844 16.699219 9.351562 16.671875 9.359375 C 16.226562 8.75 15.777344 8.140625 15.304688 7.5 C 14.96875 7.964844 14.660156 8.386719 14.363281 8.792969 C 14.945312 10.300781 15.507812 11.761719 16.09375 13.285156 C 16.316406 12.984375 16.507812 12.730469 16.691406 12.480469 C 16.3125 11.527344 15.941406 10.605469 15.574219 9.6875 C 15.601562 9.675781 15.632812 9.664062 15.660156 9.648438 C 16.164062 10.347656 16.664062 11.042969 17.195312 11.777344 C 17.433594 11.449219 17.632812 11.179688 17.820312 10.921875 C 17.796875 10.789062 17.78125 10.691406 17.757812 10.589844 C 17.539062 9.558594 17.324219 8.523438 17.105469 7.492188 Z M 11.277344 17.023438 C 11.136719 16.914062 11 16.804688 10.863281 16.695312 C 10.578125 16.460938 10.3125 16.207031 10.007812 16.003906 C 9.609375 15.734375 9.304688 15.789062 9.007812 16.15625 C 8.832031 16.367188 8.679688 16.601562 8.515625 16.824219 C 9.117188 18.28125 9.707031 19.707031 10.324219 21.207031 C 10.578125 20.863281 10.785156 20.582031 10.988281 20.304688 C 10.617188 19.417969 10.257812 18.566406 9.898438 17.710938 C 9.921875 17.699219 9.949219 17.683594 9.972656 17.667969 C 10.613281 18.121094 11.253906 18.570312 11.910156 19.035156 C 12.21875 18.609375 12.496094 18.234375 12.769531 17.855469 C 12.171875 16.402344 11.585938 14.96875 10.964844 13.457031 C 10.714844 13.800781 10.503906 14.089844 10.304688 14.359375 C 10.683594 15.277344 11.039062 16.144531 11.398438 17.007812 C 11.355469 17.011719 11.316406 17.019531 11.277344 17.023438 Z M 0 21.945312 C 0.570312 21.316406 1.175781 20.714844 1.710938 20.054688 C 4.878906 16.144531 8.035156 12.226562 11.183594 8.304688 C 13.175781 5.824219 15.15625 3.332031 17.136719 0.835938 C 17.46875 0.414062 17.859375 0.113281 18.414062 0.0742188 C 19.347656 0.078125 20.28125 0.0820312 21.214844 0.078125 C 21.34375 0.078125 21.472656 0.0273438 21.597656 0 C 22.15625 0 22.714844 0 23.273438 0 C 22.980469 1.210938 22.683594 2.417969 22.398438 3.625 C 22.09375 4.894531 21.804688 6.164062 21.507812 7.433594 C 21.460938 7.628906 21.394531 7.824219 21.335938 8.019531 C 21.238281 8.128906 21.132812 8.234375 21.046875 8.351562 C 18.882812 11.167969 16.722656 13.988281 14.5625 16.808594 C 13.234375 18.546875 11.90625 20.285156 10.582031 22.027344 C 9.597656 22.03125 8.617188 22.039062 7.632812 22.042969 C 5.300781 22.042969 2.96875 22.046875 0.636719 22.039062 C 0.425781 22.039062 0.210938 21.976562 0 21.945312 "/>
</g>
<g clip-path="url(#clip4)" clip-rule="nonzero">
<path style=" stroke:none;fill-rule:nonzero;fill:rgb(16.975403%,15.716553%,26.551819%);fill-opacity:1;" d="M 99.355469 6.796875 C 97.664062 11.890625 96.023438 16.996094 94.289062 22.082031 C 92.292969 22.082031 90.363281 22.082031 88.390625 22.082031 C 88.332031 21.910156 88.257812 21.753906 88.21875 21.589844 C 87.1875 17.140625 86.15625 12.691406 85.128906 8.242188 C 85.027344 7.792969 84.945312 7.335938 84.808594 6.886719 C 84.480469 9.40625 84.308594 11.933594 84.171875 14.460938 C 84.035156 16.976562 83.894531 19.492188 83.757812 21.992188 C 83.394531 22.152344 78.589844 22.164062 78.125 22 C 78.125 21.867188 78.113281 21.714844 78.128906 21.5625 C 78.382812 18.992188 78.644531 16.421875 78.890625 13.851562 C 79.097656 11.703125 79.296875 9.554688 79.472656 7.40625 C 79.59375 5.882812 79.667969 4.359375 79.769531 2.835938 C 79.820312 2.03125 79.886719 1.226562 79.949219 0.421875 C 79.957031 0.351562 79.988281 0.28125 80.023438 0.164062 C 80.179688 0.144531 80.347656 0.0976562 80.515625 0.0976562 C 83.128906 0.09375 85.742188 0.09375 88.359375 0.0976562 C 88.515625 0.0976562 88.671875 0.125 88.855469 0.144531 C 88.90625 0.300781 88.972656 0.433594 88.992188 0.574219 C 89.226562 2.417969 89.820312 4.175781 90.242188 5.976562 C 90.800781 8.363281 91.300781 10.765625 91.828125 13.160156 C 91.859375 13.296875 91.890625 13.4375 91.992188 13.582031 C 92.03125 13.480469 92.082031 13.382812 92.109375 13.277344 C 93.007812 10.019531 94.117188 6.832031 95.3125 3.667969 C 95.675781 2.707031 95.945312 1.714844 96.261719 0.734375 C 96.324219 0.542969 96.398438 0.355469 96.476562 0.136719 C 99.488281 0.136719 102.476562 0.136719 105.480469 0.136719 C 105.511719 0.261719 105.558594 0.359375 105.554688 0.453125 C 105.488281 1.742188 105.410156 3.03125 105.34375 4.320312 C 105.308594 5.054688 105.269531 5.785156 105.246094 6.519531 C 105.207031 7.765625 105.167969 9.011719 105.148438 10.261719 C 105.085938 14.035156 105.027344 17.804688 104.96875 21.578125 C 104.96875 21.722656 104.941406 21.863281 104.929688 21.984375 C 104.566406 22.148438 99.5 22.167969 99.03125 22.011719 C 99.019531 21.863281 98.984375 21.691406 98.992188 21.523438 C 99.035156 20.734375 99.101562 19.945312 99.136719 19.152344 C 99.183594 18.097656 99.210938 17.039062 99.242188 15.984375 C 99.304688 13.722656 99.347656 11.464844 99.445312 9.207031 C 99.480469 8.398438 99.488281 7.605469 99.355469 6.796875 "/>
</g>
<g clip-path="url(#clip5)" clip-rule="nonzero">
<path style=" stroke:none;fill-rule:nonzero;fill:rgb(16.975403%,15.716553%,26.551819%);fill-opacity:1;" d="M 47.242188 22.074219 C 44.585938 22.074219 41.9375 22.074219 39.257812 22.074219 C 36.617188 17.488281 33.972656 12.902344 31.3125 8.285156 C 31.28125 8.632812 31.230469 8.984375 31.21875 9.339844 C 31.117188 12.054688 31.027344 14.765625 30.929688 17.480469 C 30.882812 18.84375 30.832031 20.207031 30.78125 21.570312 C 30.777344 21.714844 30.746094 21.855469 30.71875 22.042969 C 30.535156 22.070312 30.367188 22.117188 30.199219 22.117188 C 28.46875 22.121094 26.734375 22.121094 25 22.117188 C 24.84375 22.117188 24.6875 22.089844 24.523438 22.074219 C 24.488281 21.960938 24.441406 21.878906 24.449219 21.800781 C 25.085938 14.613281 25.371094 7.40625 25.617188 0.160156 C 25.824219 0.132812 25.992188 0.09375 26.164062 0.0976562 C 27.792969 0.121094 29.421875 0.125 31.050781 0.1875 C 32.132812 0.234375 33.203125 0.441406 34.039062 1.195312 C 34.46875 1.582031 34.871094 2.042969 35.148438 2.546875 C 37.210938 6.253906 39.242188 9.980469 41.28125 13.699219 C 41.378906 13.875 41.480469 14.046875 41.636719 14.207031 C 41.988281 9.539062 42.113281 4.871094 42.25 0.234375 C 42.648438 0.0625 48.070312 0.0507812 48.484375 0.199219 C 48.503906 0.257812 48.546875 0.328125 48.542969 0.390625 C 47.96875 7.5 47.628906 14.621094 47.34375 21.746094 C 47.339844 21.84375 47.285156 21.9375 47.242188 22.074219 "/>
</g>
<g clip-path="url(#clip6)" clip-rule="nonzero">
<path style=" stroke:none;fill-rule:nonzero;fill:rgb(16.975403%,15.716553%,26.551819%);fill-opacity:1;" d="M 129.746094 5.070312 C 129.714844 5.070312 129.679688 5.066406 129.644531 5.066406 C 128.695312 7.066406 127.746094 9.0625 126.769531 11.121094 C 126.96875 11.148438 127.09375 11.183594 127.214844 11.183594 C 128.535156 11.1875 129.855469 11.1875 131.175781 11.183594 C 131.324219 11.179688 131.472656 11.125 131.707031 11.078125 C 131.039062 9.035156 130.394531 7.050781 129.746094 5.070312 Z M 132.886719 15.898438 C 130.164062 15.898438 127.484375 15.898438 124.738281 15.898438 C 123.773438 17.957031 122.8125 20.011719 121.847656 22.078125 C 119.332031 22.078125 116.847656 22.078125 114.316406 22.078125 C 118.25 14.769531 122.167969 7.519531 125.914062 0.136719 C 128.664062 0.136719 131.414062 0.136719 134.1875 0.136719 C 136.867188 7.445312 139.542969 14.738281 142.234375 22.078125 C 139.824219 22.078125 137.441406 22.078125 134.996094 22.078125 C 134.925781 21.886719 134.847656 21.691406 134.777344 21.488281 C 134.214844 19.785156 133.65625 18.085938 133.09375 16.386719 C 133.046875 16.234375 132.96875 16.09375 132.886719 15.898438 "/>
</g>
<g clip-path="url(#clip7)" clip-rule="nonzero">
<path style=" stroke:none;fill-rule:nonzero;fill:rgb(16.975403%,15.716553%,26.551819%);fill-opacity:1;" d="M 64.128906 5.007812 C 63.742188 5.542969 61.296875 10.839844 61.292969 11.105469 C 61.804688 11.257812 65.722656 11.214844 66.09375 11.019531 C 65.449219 9.046875 64.800781 7.0625 64.128906 5.007812 Z M 76.613281 22.011719 C 76.265625 22.140625 69.882812 22.160156 69.363281 22.023438 C 68.730469 20.003906 68.132812 17.921875 67.296875 15.902344 C 64.589844 15.902344 61.921875 15.902344 59.183594 15.902344 C 58.117188 17.898438 57.25 20.015625 56.253906 22.085938 C 53.746094 22.085938 51.273438 22.085938 48.722656 22.085938 C 52.644531 14.769531 56.574219 7.53125 60.316406 0.140625 C 63.066406 0.140625 65.832031 0.140625 68.59375 0.140625 C 71.273438 7.445312 73.9375 14.714844 76.613281 22.011719 "/>
</g>
<g clip-path="url(#clip8)" clip-rule="nonzero">
<path style=" stroke:none;fill-rule:nonzero;fill:rgb(16.975403%,15.716553%,26.551819%);fill-opacity:1;" d="M 151.34375 22.082031 C 148.921875 22.082031 146.570312 22.082031 144.175781 22.082031 C 144.148438 21.910156 144.105469 21.769531 144.113281 21.632812 C 144.210938 20.199219 144.324219 18.765625 144.421875 17.332031 C 144.496094 16.203125 144.5625 15.078125 144.621094 13.949219 C 144.710938 12.335938 144.800781 10.726562 144.867188 9.113281 C 144.921875 7.941406 144.960938 6.769531 144.976562 5.597656 C 144.992188 3.996094 144.984375 2.398438 144.988281 0.800781 C 144.992188 0.597656 145.019531 0.398438 145.03125 0.222656 C 145.394531 0.0742188 151.625 0.046875 152.15625 0.191406 C 152.171875 0.359375 152.210938 0.558594 152.199219 0.753906 C 152.140625 1.703125 152.0625 2.652344 152 3.605469 C 151.917969 4.777344 151.828125 5.945312 151.769531 7.117188 C 151.675781 9.066406 151.601562 11.015625 151.519531 12.964844 C 151.515625 13.050781 151.511719 13.140625 151.507812 13.226562 C 151.472656 15.957031 151.4375 18.6875 151.398438 21.414062 C 151.394531 21.628906 151.363281 21.839844 151.34375 22.082031 "/>
</g>
<g clip-path="url(#clip9)" clip-rule="nonzero">
<path style=" stroke:none;fill-rule:nonzero;fill:rgb(31.590271%,30.345154%,30.653381%);fill-opacity:1;" d="M 10.582031 22.027344 C 11.90625 20.285156 13.234375 18.546875 14.5625 16.808594 C 16.722656 13.988281 18.882812 11.167969 21.046875 8.351562 C 21.132812 8.234375 21.238281 8.128906 21.335938 8.019531 C 21.144531 8.894531 20.964844 9.769531 20.761719 10.644531 C 19.917969 14.261719 19.070312 17.875 18.222656 21.492188 C 18.1875 21.644531 18.125 21.792969 18.070312 21.96875 C 17.910156 21.992188 17.769531 22.03125 17.628906 22.03125 C 15.277344 22.03125 12.929688 22.027344 10.582031 22.027344 "/>
</g>
<path style=" stroke:none;fill-rule:nonzero;fill:rgb(73.442078%,72.958374%,73.077393%);fill-opacity:1;" d="M 17.105469 7.492188 C 17.085938 7.453125 17.0625 7.414062 17.042969 7.375 C 17.0625 7.363281 17.078125 7.355469 17.097656 7.347656 C 17.125 7.398438 17.15625 7.453125 17.183594 7.503906 C 17.15625 7.5 17.128906 7.496094 17.105469 7.492188 "/>
<path style=" stroke:none;fill-rule:nonzero;fill:rgb(62.319946%,61.633301%,61.804199%);fill-opacity:1;" d="M 11.398438 17.007812 C 11.40625 17.039062 11.414062 17.070312 11.445312 17.175781 C 11.347656 17.089844 11.3125 17.054688 11.277344 17.023438 C 11.316406 17.019531 11.355469 17.011719 11.398438 17.007812 "/>
<path style=" stroke:none;fill-rule:nonzero;fill:rgb(93.02063%,14.094543%,20.675659%);fill-opacity:1;" d="M 13.277344 13.550781 C 13.21875 13.125 13.160156 12.699219 13.101562 12.273438 C 13.132812 12.257812 13.15625 12.242188 13.183594 12.226562 C 13.394531 12.46875 13.605469 12.710938 13.832031 12.96875 C 13.664062 13.191406 13.523438 13.386719 13.382812 13.582031 C 13.347656 13.570312 13.3125 13.558594 13.277344 13.550781 "/>
</g>
</svg>

<svg xmlns="http://www.w3.org/2000/svg" width="176pt" height="29.493" viewBox="0 0 176 22.12"><defs><clipPath id="a"><path d="M5 2h16v20.121H5Zm0 0"/></clipPath><clipPath id="b"><path d="M155 0h21v22.121h-21Zm0 0"/></clipPath><clipPath id="c"><path d="M0 0h24v22.121H0Zm0 0"/></clipPath><clipPath id="d"><path d="M78 0h28v22.121H78Zm0 0"/></clipPath><clipPath id="e"><path d="M24 0h25v22.121H24Zm0 0"/></clipPath><clipPath id="f"><path d="M114 0h29v22.121h-29Zm0 0"/></clipPath><clipPath id="g"><path d="M48 0h29v22.121H48Zm0 0"/></clipPath><clipPath id="h"><path d="M144 0h9v22.121h-9Zm0 0"/></clipPath><clipPath id="i"><path d="M10 8h12v14.121H10Zm0 0"/></clipPath></defs><g clip-path="url(#a)"><path d="m5.297 17.54 5.285 4.495L20.629 7.492 17.984 2.91z" style="stroke:none;fill-rule:nonzero;fill:#fff;fill-opacity:1"/></g><g clip-path="url(#b)"><path d="M176 6.7c-.031.14-.074.28-.102.425-.34 2-1.406 3.484-3.199 4.434-.43.226-.879.414-1.316.617-.145.07-.285.14-.465.226.055.192.086.36.152.516.934 2.121 1.868 4.246 2.809 6.367.324.738.668 1.469.996 2.207.074.168.117.348.195.582h-7.257c-.063-.11-.133-.191-.157-.285-1.105-3.996-2.636-7.848-4-11.754-.015-.047.008-.11.016-.21.406.03.797.066 1.187.085.996.05 1.965-.062 2.875-.496a2.76 2.76 0 0 0 1.559-2.82c-.078-.68-.445-1.168-1.047-1.485-.555-.293-1.168-.406-1.785-.421-1.086-.028-2.172-.008-3.258 0-.129 0-.254.039-.41.062-.031.145-.078.27-.086.395-.066 1.347-.137 2.695-.191 4.043-.086 2.113-.164 4.222-.246 6.335q-.007.177-.008.352-.051 2.836-.102 5.68c-.004.156-.031.312-.047.445-.414.156-6.375.156-6.758.004-.007-.086-.035-.188-.023-.281.809-7.153.926-14.336 1.035-21.57.262-.024.461-.055.66-.055 1.614-.004 3.227 0 4.84-.004.41 0 .82 0 1.235-.016.187-.008.375-.05.558-.078h4.672c.23.031.461.074.691.086 1.133.062 2.247.191 3.32.59 1.985.742 3.239 2.094 3.575 4.23.016.102.055.196.082.293z" style="stroke:none;fill-rule:nonzero;fill:#2b2844;fill-opacity:1"/></g><g clip-path="url(#c)"><path d="M12.246 11.691c.223 1.95.45 3.887.672 5.825l.094.011c.25-.343.496-.683.718-.992-.078-.578-.152-1.101-.23-1.637.285-.386.566-.773.871-1.187.285.309.516.566.785.867.27-.367.516-.703.774-1.05l-2.797-3.032zm4.86-4.199.078.012c.375.879.75 1.754 1.16 2.703l.625-.86-1.871-4.308c-.364.496-.668.922-.957 1.316l.609 2.977c-.023.008-.05.02-.078.027A505 505 0 0 0 15.305 7.5c-.336.465-.645.887-.942 1.293.582 1.508 1.145 2.969 1.73 4.492.223-.3.415-.555.598-.805-.378-.953-.75-1.875-1.117-2.793q.044-.016.086-.039c.504.7 1.004 1.395 1.535 2.13.239-.329.438-.598.625-.856-.023-.133-.039-.23-.062-.332-.219-1.031-.434-2.067-.653-3.098m-5.829 9.531q-.21-.163-.414-.328c-.285-.234-.55-.488-.855-.691-.399-.27-.703-.215-1 .152-.176.211-.328.446-.492.668.601 1.457 1.191 2.883 1.808 4.383l.664-.902c-.37-.887-.73-1.739-1.09-2.594a1 1 0 0 0 .075-.043c.64.453 1.28.902 1.937 1.367.309-.426.586-.8.86-1.18-.598-1.453-1.184-2.886-1.805-4.398-.25.344-.461.633-.66.902.379.918.734 1.786 1.093 2.649-.043.004-.082.012-.12.015M0 21.945c.57-.629 1.176-1.23 1.71-1.89q4.752-5.866 9.474-11.75c1.992-2.48 3.972-4.973 5.953-7.47.332-.42.722-.722 1.277-.76.934.003 1.867.007 2.8.003.13 0 .259-.05.384-.078h1.675c-.293 1.21-.59 2.418-.875 3.625-.304 1.27-.593 2.54-.89 3.809-.047.195-.113.39-.172.586-.098.109-.203.214-.29.332a6912 6912 0 0 0-6.483 8.457q-1.994 2.606-3.981 5.218c-.984.004-1.965.012-2.95.016-2.331 0-4.663.004-6.995-.004-.211 0-.426-.062-.637-.094" style="stroke:none;fill-rule:nonzero;fill:#ed2435;fill-opacity:1"/></g><g clip-path="url(#d)"><path d="M99.355 6.797c-1.69 5.094-3.332 10.2-5.066 15.285h-5.898c-.059-.172-.133-.328-.172-.492q-1.548-6.675-3.09-13.348c-.102-.449-.184-.906-.32-1.355-.329 2.52-.5 5.047-.637 7.574-.137 2.516-.277 5.031-.414 7.531-.363.16-5.168.172-5.633.008 0-.133-.012-.285.004-.437.254-2.57.516-5.141.762-7.711.207-2.149.406-4.297.582-6.446.12-1.523.195-3.047.297-4.57.05-.805.117-1.61.18-2.414.007-.07.038-.14.073-.258.157-.02.325-.066.493-.066q3.918-.006 7.843 0c.157 0 .313.027.496.047.051.156.118.289.137.43.235 1.843.828 3.6 1.25 5.402.559 2.386 1.059 4.789 1.586 7.183.031.137.063.277.164.422.04-.102.09-.2.117-.305.899-3.257 2.008-6.445 3.204-9.609.363-.961.632-1.953.949-2.934.062-.191.136-.379.215-.597h9.003c.032.125.079.222.075.316-.067 1.29-.145 2.578-.211 3.867-.035.735-.074 1.465-.098 2.2-.039 1.246-.078 2.492-.098 3.742q-.091 5.658-.18 11.316c0 .145-.027.285-.038.406-.364.164-5.43.184-5.899.028-.011-.149-.047-.32-.039-.489.043-.789.11-1.578.145-2.37.047-1.055.074-2.114.105-3.169.063-2.261.106-4.52.203-6.777.035-.809.043-1.602-.09-2.41" style="stroke:none;fill-rule:nonzero;fill:#2b2844;fill-opacity:1"/></g><g clip-path="url(#e)"><path d="M47.242 22.074h-7.984c-2.64-4.586-5.285-9.172-7.946-13.789-.03.348-.082.7-.093 1.055-.102 2.715-.192 5.426-.29 8.14q-.07 2.046-.148 4.09c-.004.145-.035.285-.062.473-.184.027-.352.074-.52.074q-2.596.006-5.199 0c-.156 0-.312-.027-.477-.043-.035-.113-.082-.195-.074-.273.637-7.188.922-14.395 1.168-21.64.207-.028.375-.067.547-.063 1.629.023 3.258.027 4.887.09 1.082.046 2.152.253 2.988 1.007.43.387.832.848 1.11 1.352 2.062 3.707 4.093 7.433 6.132 11.152.098.176.2.348.356.508.351-4.668.476-9.336.613-13.973.398-.171 5.82-.183 6.234-.035.02.059.063.13.059.192-.574 7.109-.914 14.23-1.2 21.355-.003.098-.058.192-.1.328" style="stroke:none;fill-rule:nonzero;fill:#2b2844;fill-opacity:1"/></g><g clip-path="url(#f)"><path d="M129.746 5.07q-.048-.002-.101-.004c-.95 2-1.899 3.997-2.875 6.055.199.027.324.063.445.063q1.98.006 3.96 0c.15-.004.298-.059.532-.106-.668-2.043-1.312-4.027-1.96-6.008m3.14 10.828h-8.148c-.965 2.059-1.925 4.114-2.89 6.18h-7.532C118.25 14.77 122.168 7.52 125.914.137h8.273l8.047 21.941h-7.238c-.07-.191-.148-.387-.219-.59-.562-1.703-1.12-3.402-1.683-5.101-.047-.153-.125-.293-.207-.489" style="stroke:none;fill-rule:nonzero;fill:#2b2844;fill-opacity:1"/></g><g clip-path="url(#g)"><path d="M64.129 5.008c-.387.535-2.832 5.832-2.836 6.097.512.153 4.43.11 4.8-.085zm12.484 17.004c-.347.129-6.73.148-7.25.011-.633-2.02-1.23-4.101-2.066-6.12h-8.113c-1.067 1.995-1.934 4.113-2.93 6.183h-7.531C52.645 14.77 56.574 7.53 60.316.14h8.278c2.68 7.304 5.344 14.574 8.02 21.87" style="stroke:none;fill-rule:nonzero;fill:#2b2844;fill-opacity:1"/></g><g clip-path="url(#h)"><path d="M151.344 22.082h-7.168c-.028-.172-.07-.312-.063-.45.098-1.433.211-2.866.309-4.3a245 245 0 0 0 .2-3.383c.089-1.613.179-3.222.245-4.836q.084-1.757.11-3.515c.015-1.602.007-3.2.011-4.797.004-.203.032-.403.043-.578.364-.149 6.594-.176 7.125-.032.016.168.055.368.043.563-.058.95-.137 1.898-.199 2.851-.082 1.172-.172 2.34-.23 3.512-.094 1.95-.168 3.899-.25 5.848l-.012.262q-.051 4.096-.11 8.187c-.003.215-.035.426-.054.668" style="stroke:none;fill-rule:nonzero;fill:#2b2844;fill-opacity:1"/></g><g clip-path="url(#i)"><path d="M10.582 22.027q1.987-2.612 3.98-5.218 3.239-4.232 6.485-8.457c.086-.118.191-.223.289-.332-.191.875-.371 1.75-.574 2.625-.844 3.617-1.692 7.23-2.54 10.847-.035.153-.097.301-.152.477-.16.023-.3.062-.441.062q-3.527-.002-7.047-.004" style="stroke:none;fill-rule:nonzero;fill:#514d4e;fill-opacity:1"/></g><path d="M17.105 7.492q-.032-.058-.062-.117a.4.4 0 0 1 .055-.027l.086.156z" style="stroke:none;fill-rule:nonzero;fill:#bbbaba;fill-opacity:1"/><path d="M11.398 17.008c.008.031.016.062.047.168-.097-.086-.133-.121-.168-.153.04-.003.078-.011.121-.015" style="stroke:none;fill-rule:nonzero;fill:#9f9d9e;fill-opacity:1"/><path d="m13.277 13.55-.175-1.277c.03-.015.054-.03.082-.046.21.242.421.484.648.742-.168.222-.309.418-.45.613a1 1 0 0 0-.105-.031" style="stroke:none;fill-rule:nonzero;fill:#ed2435;fill-opacity:1"/></svg>
